X: 76
T: Fangniu diao
%%abc-version 2.0
%%abcx-abcm2ps-target-version 5.9.1 (29 Sep 2008)
%%abc-creator hum2abc beta
%%abcx-conversion-date 2013/10/02 07:52:29
%%abc-edited-by Helmut Schaffrath
%%humdrum-veritas 3962644570
%%humdrum-veritas-data 2238674355
%%continueall 1
%%barnumbers 0
L: 1/16
M: 2/4
K: F
c2 c f c2 c2 [I:setbarnb 1]| 
B c B GF4 | 
G2 c c F2 G2 | 
B2 B DC4 | 
F2 F F E2 F2 | 
E2 D CB4 | 
c2 c c2< F2 G | 
B2> c2 G2 F D | 
C2> B2 G2 F D | 
C8 |]  



